src/modules/75-ce/components/COAccessPointList/images/file-multiple-outline.svg

<svg fill="none" height="42" viewBox="0 0 42 42" width="42" xmlns="http://www.w3.org/2000/svg"><path d="m28 0h-14c-1.925 0-3.5 1.575-3.5 3.5v28c0 1.925 1.575 3.5 3.5 3.5h21c1.925 0 3.5-1.575 3.5-3.5v-21zm7 31.5h-21v-28h12.25v8.75h8.75zm-28-24.5v31.5h28v3.5h-28c-1.925 0-3.5-1.575-3.5-3.5v-31.5z" fill="#b0b1c4"/><path d="m23.3231 24.1548h1.3523v-3.3082h3.3082v-1.3523h-3.3082v-3.3082h-1.3523v3.3082h-3.3082v1.3523h3.3082z" fill="#0278d5"/></svg>

<svg width="42" height="42" viewBox="0 0 42 42" fill="none" xmlns="http://www.w3.org/2000/svg">
<path d="M28 0H14C12.075 0 10.5 1.575 10.5 3.5V31.5C10.5 33.425 12.075 35 14 35H35C36.925 35 38.5 33.425 38.5 31.5V10.5L28 0ZM35 31.5H14V3.5H26.25V12.25H35V31.5ZM7 7V38.5H35V42H7C5.075 42 3.5 40.425 3.5 38.5V7H7Z" fill="#B0B1C4"/>
<path d="M23.3231 24.1548H24.6754V20.8466H27.9836V19.4943H24.6754V16.1861H23.3231V19.4943H20.0149V20.8466H23.3231V24.1548Z" fill="#0278D5"/>
</svg>
